X:1
T:Nun Lob, 78.78.76.76.76.76
T:Nun Lob, 78.78.76.76.76.76
T:Concentus Novi (Augsburg, German
T:Public Domain Courtesy of the Cyber Hymnal™
C:Concentus Novi (Augsburg, German
Z:Public Domain
Z:Courtesy of the Cyber Hymnal™
%%score ( 1 2 ) ( 3 4 )
L:1/8
Q:1/4=130
M:3/4
K:G
V:1 treble 
V:2 treble 
V:3 bass 
V:4 bass 
V:1
 E2 | [EG]4 [DF]2 | [CE]4 [B,D]2 | ([B,G]4 [EA]2) | [^DB]4 [EB]2 | [EB]4 [DB]2 | [EB]4 [EA]2 | %7
 G4 [DF]2 | [DG]4 E2 | [EG]4 [DF]2 | [CE]4 [B,D]2 | ([B,G]4 [EA]2) | [^DB]4 [EB]2 | [EB]4 [DB]2 | %14
 [EB]4 [EA]2 | G4 [DF]2 | [DG]4 [DG]2 | [EG]4 [GB]2 | [FA]4 [FB]2 | G2 z2 x6 | E4 E2 | %21
 [EA]4 [EA]2 | (F2 G2) [^CE]2 | D4 D2 | [DG]4 [B,G]2 | [EA]4 [EA]2 | B6 | [EG]4 [DG]2 | %28
 [Cc]4 [Ec]2 | [=FB]4 [EB]2 | [^CA]4 [DA]2 | [DB]4 [DB]2 | [Ec]4 [Gc]2 | [=Fd]6 | [EG]4 [GB]2 | %35
 [FA]4 D2 | [DF]2 E4 | D4 D2 | [B,G]4 [^CG]2 | [DF]4 E2 | A6 | [DA]4 [DB]2 | [Ec]4 [DB]2 | %43
 ([B,G]2 [DB]2) [DA]2 | [DG]4 |] %45
V:2
 E2 | x6 | x6 | x6 | x6 | x6 | x6 | (D2 E2) x2 | x4 E2 | x6 | x6 | x6 | x6 | x6 | x6 | (D2 E2) x2 | %16
 x6 | x6 | x6 | E4 (F4 ^D2) | E4 E2 | x6 | D4 x2 | D4 D2 | x6 | x6 | (D3 E =F2) | x6 | x6 | x6 | %30
 x6 | x6 | x6 | x6 | x6 | x4 D2 | x2 (D2 ^C2) | D4 D2 | x6 | x4 E2 | (D4 ^C2) | x6 | x6 | x6 | %44
 x4 |] %45
V:3
 [E,G,]2 | [E,B,]4 [B,,B,]2 | [C,G,]4 [G,,G,]2 | ([E,G,]4 [C,E,]2) | [B,,F,]4 [E,G,]2 | %5
 [E,G,]4 [B,,F,]2 | [E,G,]4 [A,,C]2 | ([B,,B,]2 [C,A,]2) [D,A,]2 | [G,,B,]4 [E,G,]2 | %9
 [E,B,]4 [B,,B,]2 | [C,G,]4 [G,,G,]2 | ([E,G,]4 [C,E,]2) | [B,,F,]4 [E,G,]2 | [E,G,]4 [B,,F,]2 | %14
 [E,G,]4 [A,,C]2 | ([B,,B,]2 [C,A,]2) [D,A,]2 | [G,,B,]4 [G,B,]2 | [C,C]4 [G,,D]2 | %18
 [D,D]4 [B,,D]2 | B,6 x4 | [E,,^G,]4 [E,G,]2 | [^C,A,]4 [C,A,]2 | ([D,A,]2 [G,,B,]2) [A,,A,]2 | %23
 [D,F,]4 [D,F,]2 | [B,,G,]4 [E,G,]2 | [C,G,]4 [D,F,]2 | [G,,G,]6 | [C,G,]4 [C,G,]2 | [A,,E,]4 A,2 | %29
 [D,A,]4 [E,^G,]2 | [A,,A,]4 [D,F,]2 | [G,,G,]4 G,2 | [C,G,]4 [E,C]2 | (B,3 A, B,2) | %34
 [C,C]4 [G,,D]2 | [D,D]4 [B,,F,]2 | [F,,A,]2 [A,,A,]4 | [D,F,]4 [B,,F,]2 | [E,G,]4 [E,G,]2 | %39
 [D,A,]4 [^C,A,]2 | ([D,F,]4 [A,,E,]2) | [D,F,]4 [G,,G,]2 | ([C,G,]2 [A,,F,]2) [B,,G,]2 | %43
 G,4 [D,F,]2 | [G,,B,]4 |] %45
V:4
 x2 | x6 | x6 | x6 | x6 | x6 | x6 | x6 | x6 | x6 | x6 | x6 | x6 | x6 | x6 | x6 | x6 | x6 | x6 | %19
 (E,2 B,,4) x4 | x6 | x6 | x6 | x6 | x6 | x6 | x6 | x6 | x4 A,2 | x6 | x6 | x4 G,2 | x6 | D,6 | %34
 x6 | x6 | x6 | x6 | x6 | x6 | x6 | x6 | x6 | (E,2 B,,2) x2 | x4 |] %45

